web/themes/quartiers_solidaires/assets/icons/communities-sm.svg

<?xml version="1.0" encoding="UTF-8"?>
<svg width="50px" height="50px" viewBox="0 0 50 50" version="1.1" xmlns="http://www.w3.org/2000/svg" xmlns:xlink="http://www.w3.org/1999/xlink">
        <path d="M36.9664499,17.352379 C37.7646363,19.6145078 37.8623416,22.0574361 37.2548093,24.3884129 C37.0458729,25.1900594 36.2266335,25.6705458 35.4249871,25.4616093 C34.6233406,25.2526729 34.1428542,24.4334335 34.3517907,23.6317871 C34.9484141,21.3426651 34.6420011,18.919503 33.4403422,16.837239 C32.2376827,14.7546866 30.2915007,13.2769214 28.0112521,12.6493219 C27.2125258,12.4294862 26.7432423,11.6037784 26.9630781,10.8050521 C27.1829138,10.0063258 28.0086216,9.53704229 28.8073479,9.75687807 C31.1292284,10.395936 33.1962703,11.7022481 34.7564987,13.5248012 L43.2410672,4.47411713 C43.8076466,3.8697338 44.7568995,3.83908771 45.3612829,4.40566717 C45.9656662,4.97224664 45.9963123,5.92149954 45.4297328,6.52588287 L38.5056691,13.9119407 L48.3640173,11.6085405 C49.1707173,11.4200553 49.9774743,11.9212174 50.1659595,12.7279173 C50.3544447,13.5346173 49.8532826,14.3413743 49.0465827,14.5298595 L36.9664499,17.352379 Z M16.4490434,13.5245261 C18.0092683,11.7021543 20.07622,10.3959572 22.3984957,9.75703855 C23.1972438,9.53728208 24.022905,10.0066476 24.2426614,10.8053957 C24.4624179,11.6041438 23.9930524,12.429805 23.1943043,12.6495614 C20.9139517,13.276946 18.9682763,14.7542722 17.765713,16.8358236 C16.563685,18.9195613 16.2572836,21.3428563 16.8539093,23.6319871 C17.0628458,24.4336335 16.5823594,25.2528729 15.7807129,25.4618093 C14.9790665,25.6707458 14.1598271,25.1902594 13.9508907,24.3886129 C13.3434169,22.0578603 13.4410463,19.6151526 14.2392443,17.3523777 L2.15911733,14.5298595 C1.35241737,14.3413743 0.851255299,13.5346173 1.03974051,12.7279173 C1.22822572,11.9212174 2.03498271,11.4200553 2.84168267,11.6085405 L12.700159,13.9119706 L5.77606717,6.52588287 C5.20948771,5.92149954 5.2401338,4.97224664 5.84451713,4.40566717 C6.44890046,3.83908771 7.39815336,3.8697338 7.96473283,4.47411713 L16.4490434,13.5245261 Z M23.4033057,33.1922468 C21.0457032,32.7524231 18.8807901,31.6152202 17.1660642,29.9239343 C16.5762604,29.342193 16.5697244,28.392468 17.1514657,27.8026642 C17.733207,27.2128604 18.682932,27.2063244 19.2727358,27.7880657 C20.9568257,29.4491343 23.2095731,30.396 25.6124,30.396 C28.0169901,30.396 30.2698157,29.4492908 31.9540642,27.7880657 C32.543868,27.2063244 33.493593,27.2128604 34.0753343,27.8026642 C34.6570756,28.392468 34.6505396,29.342193 34.0607358,29.9239343 C32.3460694,31.6151615 30.1813933,32.7522046 27.8233507,33.192103 L31.4189167,45.0653534 C31.6590206,45.8582227 31.2109158,46.6956128 30.4180466,46.9357167 C29.6251773,47.1758206 28.7877872,46.7277158 28.5476833,45.9348466 L25.61335,36.2451138 L22.6790167,45.9348466 C22.4389128,46.7277158 21.6015227,47.1758206 20.8086534,46.9357167 C20.0157842,46.6956128 19.5676794,45.8582227 19.8077833,45.0653534 L23.4033057,33.1922468 Z M28.0094,25.4653 C28.0094,26.7887271 26.9368271,27.8613 25.6134,27.8613 C24.2899729,27.8613 23.2174,26.7887271 23.2174,25.4653 C23.2174,24.1418729 24.2899729,23.0693 25.6134,23.0693 C26.9368271,23.0693 28.0094,24.1418729 28.0094,25.4653 Z M20.8390533,21.3780337 C19.6921541,20.7134818 19.2999725,19.2512637 19.9595663,18.1056533 C20.6203761,16.957931 22.0875035,16.5657041 23.2319467,17.2261663 C24.379957,17.887142 24.7731372,19.3539109 24.1114337,20.4985467 C23.450734,21.6460777 21.9853939,22.0380479 20.8390533,21.3780337 Z M27.9697675,17.2280375 C29.1196939,16.5659521 30.585034,16.9579223 31.2444227,18.103181 C31.9074372,19.2500891 31.514257,20.716858 30.3675589,21.3770773 C29.2218035,22.0382959 27.7546761,21.646069 27.0938663,20.4983467 C26.4342725,19.3527363 26.8264541,17.8905182 27.9697675,17.2280375 Z" id="Combined-Shape" fill="currentColor" fill-rule="nonzero"></path>
</svg>

<svg viewBox="0 0 50 50" xmlns="http://www.w3.org/2000/svg">
  <path d="M36.966 17.352c.799 2.263.896 4.705.289 7.036a1.5 1.5 0 1 1-2.903-.756 8.995 8.995 0 0 0-.912-6.795 8.996 8.996 0 0 0-5.429-4.188 1.5 1.5 0 1 1 .796-2.892 12.01 12.01 0 0 1 5.95 3.768l8.484-9.05a1.5 1.5 0 1 1 2.189 2.05l-6.924 7.387 9.858-2.303a1.5 1.5 0 0 1 .683 2.92l-12.08 2.823zM16.45 13.525a12.008 12.008 0 0 1 5.95-3.768 1.5 1.5 0 0 1 .795 2.893 8.995 8.995 0 0 0-5.428 4.186 8.998 8.998 0 0 0-.912 6.796 1.5 1.5 0 1 1-2.903.757 12.01 12.01 0 0 1 .288-7.037L2.16 14.53a1.5 1.5 0 0 1 .683-2.921l9.858 2.303-6.924-7.386a1.5 1.5 0 0 1 2.189-2.052l8.484 9.05zm6.954 19.667a12.012 12.012 0 0 1-6.237-3.268 1.5 1.5 0 0 1 2.107-2.136 8.995 8.995 0 0 0 6.34 2.608 8.997 8.997 0 0 0 6.341-2.608 1.5 1.5 0 0 1 2.107 2.136 12.011 12.011 0 0 1-6.238 3.268l3.596 11.873a1.5 1.5 0 1 1-2.871.87l-2.935-9.69-2.934 9.69a1.5 1.5 0 1 1-2.871-.87l3.595-11.873zm4.606-7.727a2.396 2.396 0 1 1-4.791 0 2.396 2.396 0 0 1 4.791 0zm-7.17-4.087a2.396 2.396 0 1 1 2.393-4.153 2.396 2.396 0 0 1-2.393 4.153zm7.13-4.15a2.396 2.396 0 1 1 2.4 4.148 2.396 2.396 0 0 1-2.4-4.148z" fill="currentColor"/>
</svg>
